do
  setcps(86/60/4)

  let

  d1 $ swingBy (choose[1/7, 1/8]) 8
  $ sound "bd(<6 6 6 10>,<16>)" # n 8
  # shape 0.6 # speed 1.1 # nudge "<-0.03 0> 0 0.01 0.03"
  # gain "1.3"

  d2 $ sound "{~ Snare}%4"

  hush